packages/kaspersky-hexa-ui-icons/src/iconsSVGs/64x42/FlagDj.svg

<svg width="64" height="42" viewBox="0 0 64 42" fill="none" xmlns="http://www.w3.org/2000/svg">
<g clip-path="url(#clip0_37941_2227)">
<rect width="64" height="42" rx="5" fill="white"/>
<path fill-rule="evenodd" clip-rule="evenodd" d="M0 42H64V21.0034H0V42Z" fill="#1DC837"/>
<path fill-rule="evenodd" clip-rule="evenodd" d="M0 21.0034H64V0H0V21.0034Z" fill="#82C5F5"/>
<path fill-rule="evenodd" clip-rule="evenodd" d="M0 0L28 21L0 42V0Z" fill="white"/>
<mask id="mask0_37941_2227" style="mask-type:alpha" maskUnits="userSpaceOnUse" x="0" y="0" width="28" height="42">
<path fill-rule="evenodd" clip-rule="evenodd" d="M0 0L28 21L0 42V0Z" fill="white"/>
</mask>
<g mask="url(#mask0_37941_2227)">
<rect x="0.5" y="0.499969" width="63" height="41" rx="4.5" stroke="#F5F5F5"/>
</g>
<path fill-rule="evenodd" clip-rule="evenodd" d="M9.80005 23.73L5.68555 26.6631L7.20366 21.8436L3.14265 18.8368L8.19539 18.7914L9.80005 14L11.4047 18.7914L16.4574 18.8368L12.3964 21.8436L13.9145 26.6631L9.80005 23.73Z" fill="#E21C21"/>
</g>
<defs>
<clipPath id="clip0_37941_2227">
<rect width="64" height="42" rx="5" fill="white"/>
</clipPath>
</defs>
</svg>

<svg xmlns="http://www.w3.org/2000/svg" width="64" height="42" fill="none" viewBox="0 0 64 42"><g clip-path="url(#a)"><rect width="64" height="42" fill="#fff" rx="5"/><path fill="#1dc837" fill-rule="evenodd" d="M0 42h64V21.0034H0z" clip-rule="evenodd"/><path fill="#82c5f5" fill-rule="evenodd" d="M0 21.0034h64V0H0z" clip-rule="evenodd"/><path fill="#fff" fill-rule="evenodd" d="m0 0 28 21L0 42z" clip-rule="evenodd"/><mask id="b" width="28" height="42" x="0" y="0" maskUnits="userSpaceOnUse" style="mask-type:alpha"><path fill="#fff" fill-rule="evenodd" d="m0 0 28 21L0 42z" clip-rule="evenodd"/></mask><g mask="url(#b)"><rect width="63" height="41" x="1" y="1" stroke="#f5f5f5" rx="5"/></g><path fill="#e21c21" fill-rule="evenodd" d="m9.8 23.73-4.1145 2.9331 1.5182-4.8195-4.061-3.0068 5.0527-.0454L9.8 14l1.6046 4.7914 5.0527.0454-4.061 3.0068 1.5181 4.8195z" clip-rule="evenodd"/></g><defs><clipPath id="a"><rect width="64" height="42" fill="#fff" rx="5"/></clipPath></defs></svg>
